X: 23031
T: Last Of The Litter
R: slip jig
M: 9/8
K: Amajor
A3 ABc efa|A3 ABc BAF|A3 ABc efa|f3 fed cBA:|
f3 fec f2a|d dcd edc|B3 BAB Bcd|B3 BAB Bcd:|
A3 ABc ABc|A3 ABc BAF|A3 ABc ABc|def ecA BcB:|

